X:1
T:The King's birthday - Terry
T:The King's birthday - Terry
T:James Gibb editions
T:#
T:#
%%score [ ( 1 2 ) ( 3 4 ) ]
L:1/8
Q:1/4=108
M:6/8
K:C
V:1 treble nm="Midi_74"
V:2 treble 
V:3 bass nm="Midi_74"
V:4 bass 
V:1
"^The King's Birthday""^Henry Vaughan\n(1621-95)"!mf!"^R. R. Terry\n(1865-1938)" G | c2 G c2 G | %2
w: ||
 (FE)D C2 D | E2 ^F G2 c | (BA)B G2 G | A2 E G z G | A2 E G3 | GAB c2 B | A2 B G3 | ^FGA B2 A | %10
w: up * * * *||of * * * *||||||
 G2 ^F E2!f! E | G3- G2 E | G3- G2 G | A2 c c2 B | c3- c2 z ||!mf! G | c2 G c2 G | (FE)D C2 D | %18
w: * * * A-|wake! * A-|wake! * *|||||how * * * *|
 E2 ^F G2 c | (BA)B G2 G | A2 E G z G | A2 E G3 | GAB c2 B | A2 B G3 | ^FGA B2 A | G2 ^F E2!f! E | %26
w: |bus\- * * * *||||||* * * A\-|
 G3- G2 E | G3- G2 G | A2 c c2 B | c3- c2 z ||!mf! G | c2 G c2 G | (FE)D C2 D | E2 ^F G2 c | %34
w: wake! * A-|wake! * *|||||||
 (BA)B G2 G | A2 E G z G | A2 E G3 | GAB c2 B | A2 B G3 | ^FGA B2 A | G2 ^F E2!f! E | G3- G2 E | %42
w: ||||||* * * A-|wake! * A\-|
 G3- G2[Q:1/4=106]!ff! G |[Q:1/4=102] A2[Q:1/4=98] c[Q:1/4=95] c2[Q:1/4=91] B |[Q:1/4=87] c3- c2 |] %45
w: wake! * *|||
V:2
 G | E2 D C2 C | C2 B, C2 B, | C2 C B,2 G | ^F2 F G2 C | C2 C D z C | C2 C D3 | DDD C2 D | %8
w: ~A-|wake, glad heart! get|* and sing! It|* the birth- day|* thy King. A-|wake! A- wake! The|sun doth shake|Light from his locks, and|
 E2 ^D (E2 =D) | CCE E2 E | E2 ^D E2 z | z2!f! B, C z E | D2 F E2 G | F2 G A2 G | G3- G2 z || G | %16
w: all the way *|Breath- ing per- fumes, doth|spice the day.|A- wake! A-|wake! A- wake glad|heart, get * and|sing! *|~A-|
 E2 D C2 C | C2 B, C2 B, | C2 C B,2 G | ^F2 F G2 C | C2 C D z C | C2 C D3 | DDD C2 D | %23
w: wake! a- wake! hark|* ~~~~~th'wood rings, Winds|* * * the|* y springs A|con- cert make; A-|wake! a- wake!|Man is their high priest,|
 E2 ^D (E2 =D) | CCE E2 E | E2 ^D E2 z | z2!f! B, C z E | D2 F E2 G | F2 G A2 G | G3- G2 z || G | %31
w: and should rise *|To of- fer up the|sac- ri- fice.|A- wake! A-|wake! A- wake Glad|heart, get * and|sing! *|~I|
 E2 D C2 C | C2 B, C2 B, | C2 C B,2 G | ^F2 F G2 C | C2 C D z C | C2 C D3 | DDD C2 D | %38
w: would I were some|* or star, Flutt'\-|* in * or|* ed far A-|bove this inn And|road of sin!|Then eith- er star or|
 E2 ^D (E2 =D) | CCE E2 E | E2 ^D E2 z | z2!f! B, C z E | D2 F E2 G | F2 G A2 G | G3- G2 |] %45
w: bird should be *|Shin- ing or sing- ing|still to thee.|A- wake A-|wake! A- wake Glad|heart, get * and|sing! *|
V:3
 G, | G,2 G, E,2 E, | (D,E,)F, E,2 G, | G,2 A, (G,B,)E | (DC)D B,2 C | C2 C B, z C | C2 C B,3 | %7
w: |||||||
 B,A,G, G,2 ^F, | E,2 ^F, (E,2 E) | EEC B,2 C | B,2 A, G,2 z | z2 G, G, z G, | G,2 B, C2 C | %13
w: ||||||
 C2 C (FE)D | E3- E2 z || G, | G,2 G, E,2 E, | (D,E,)F, E,2 G, | G,2 A, (G,B,)E | (DC)D B,2 C | %20
w: * * up * *|||||* per, and * *||
 C2 C B, z C | C2 C B,3 | B,A,G, G,2 ^F, | E,2 ^F, (E,2 E) | EEC B,2 C | B,2 A, G,2 z | %26
w: ||||||
 z2 G, G, z G, | G,2 B, C2 C | C2 C (FE)D | E3- E2 z || G, | G,2 G, E,2 E, | (D,E,)F, E,2 G, | %33
w: ||* * up * *||||bird * * * *|
 G,2 A, (G,B,)E | (DC)D B,2 C | C2 C B, z C | C2 C B,3 | B,A,G, G,2 ^F, | E,2 ^F, (E,2 E) | %39
w: * * woods, * *|lift\- * * * *|||||
 EEC B,2 C | B,2 A, G,2 z | z2 G, G, z G, | G,2 B, C2 C | C2 C (FE)D | E3- E2 |] %45
w: ||||* * up * *||
V:4
 G, | C,2 B,, A,,2 C, | G,,2 G,, A,,2 G,, | (C,B,,)A,, E,2 A,, | D,2 D, G,2 E, | F,2 A, G, z E, | %6
w: |||is * * * *|||
 F,2 A, G,3 | F,F,F, E,2 D, | C,2 B,, E,3 | A,G,^F, G,2 A, | B,2 B,, E,2 z | z2 F, E, z C, | %12
w: ||||||
 B,,2 D, C,2 E, | F,2 E, D,2 G,, | C,3- C,2 z || G, | C,2 B,, A,,2 C, | G,,2 G,, A,,2 G,, | %18
w: ||||||
 (C,B,,)A,, E,2 A,, | D,2 D, G,2 E, | F,2 A, G, z E, | F,2 A, G,3 | F,F,F, E,2 D, | C,2 B,, E,3 | %24
w: whis\- * * * *||||||
 A,G,^F, G,2 A, | B,2 B,, E,2 z | z2 F, E, z C, | B,,2 D, C,2 E, | F,2 E, D,2 G,, | C,3- C,2 z || %30
w: ||||||
 G, | C,2 B,, A,,2 C, | G,,2 G,, A,,2 G,, | (C,B,,)A,, E,2 A,, | D,2 D, G,2 E, | F,2 A, G, z E, | %36
w: |||ring * * * *|||
 F,2 A, G,3 | F,F,F, E,2 D, | C,2 B,, E,3 | A,G,^F, G,2 A, | B,2 B,, E,2 z | z2 F, E, z C, | %42
w: ||||||
 B,,2 D, C,2 E, | F,2 E, D,2 G,, | C,3- C,2 |] %45
w: |||

